_PROJECT/BUILD/img/icons/ic-city.svg

<svg xmlns="http://www.w3.org/2000/svg" width="26" height="32"><path d="M13 0a13 13 0 0 1 10.08 21.2C20.7 24.13 13 32 13 32S5.24 24.1 2.86 21.14A13 13 0 0 1 13 0z" fill-rule="evenodd" fill="#0068b8"/><circle cx="13" cy="13" r="11" fill="#fff"/><path d="M5.5 20H13V6H5.5zm4.69-12.25h1.88V9.5h-1.88zm0 3.5h1.88V13h-1.88zm0 3.5h1.88v1.75h-1.88zm-3.75-7h1.87V9.5H6.44zm0 3.5h1.87V13H6.44zm0 3.5h1.87v1.75H6.44zm7.5-4.37h6.56v.88h-6.56zm0 9.63h1.88V16.5h2.81V20h1.87v-7.87h-6.56z" fill="#0068b8"/></svg>

<svg xmlns="http://www.w3.org/2000/svg" width="26" height="32" viewBox="0 0 26 32"><defs><style>.cls-1,.cls-3{fill:#0068b8;}.cls-1{fill-rule:evenodd;}.cls-2{fill:#fff;}</style></defs><title>ic-city</title><g id="bk"><path class="cls-1" d="M13,0a13,13,0,0,1,10.08,21.2C20.7,24.13,13,32,13,32S5.24,24.1,2.86,21.14A13,13,0,0,1,13,0Z" transform="translate(0 0)"/><circle class="cls-2" cx="13" cy="13" r="11"/></g><g id="city"><path class="cls-3" d="M5.5,20H13V6H5.5ZM10.19,7.75h1.88V9.5H10.19Zm0,3.5h1.88V13H10.19Zm0,3.5h1.88V16.5H10.19Zm-3.75-7H8.31V9.5H6.44Zm0,3.5H8.31V13H6.44Zm0,3.5H8.31V16.5H6.44Zm7.5-4.37H20.5v.88H13.94Zm0,9.63h1.88V16.5h2.81V20H20.5V12.13H13.94Z" transform="translate(0 0)"/></g></svg>
